dist/campaign/images/employer/explore/index-icon-3.svg

<svg width="400" height="200" viewBox="0 0 400 200" fill="none" xmlns="http://www.w3.org/2000/svg">
<path d="M400 195C400 197.762 397.762 200 395 200H5C2.239 200 0 197.762 0 195V5C0 2.239 2.239 0 5 0H395C397.762 0 400 2.239 400 5V195Z" fill="#FEBE47"/>
<path opacity="0.05" d="M252.66 46.691H114.837C110.446 46.691 106.886 50.252 106.886 54.642V155.359C106.886 159.75 110.446 163.31 114.837 163.31H252.66C257.051 163.31 260.611 159.749 260.611 155.359V54.642C260.611 50.251 257.051 46.691 252.66 46.691Z" fill="black"/>
<path d="M261.75 49.642H114.75V155.25H261.75V49.642Z" fill="white"/>
<path d="M261.75 56.833H115.5V90.246H261.75V56.833Z" fill="black"/>
<path d="M178.013 80.247H129.368C128.201 80.247 127.253 79.299 127.253 78.132C127.253 76.965 128.201 76.017 129.368 76.017H178.013C179.18 76.017 180.128 76.965 180.128 78.132C180.128 79.299 179.181 80.247 178.013 80.247Z" fill="white"/>
<path d="M161.094 71.787H129.369C128.202 71.787 127.254 70.84 127.254 69.672C127.254 68.504 128.202 67.557 129.369 67.557H161.094C162.261 67.557 163.209 68.505 163.209 69.672C163.209 70.839 162.261 71.787 161.094 71.787Z" fill="white"/>
<path d="M185.875 98.69H128.788V139.5H185.875V98.69Z" fill="#A5A4A4"/>
<path d="M185.875 143.005H128.788V155.526H185.875V143.005Z" fill="#A5A4A4"/>
<path d="M134.415 153.249C134.415 149.59 137.382 146.623 141.042 146.623C144.7 146.623 147.667 149.59 147.667 153.249" fill="white"/>
<path d="M141.042 117.253C144.701 117.253 147.668 114.286 147.668 110.627C147.668 106.968 144.701 104.001 141.042 104.001C137.383 104.001 134.416 106.968 134.416 110.627C134.416 114.286 137.383 117.253 141.042 117.253Z" fill="white"/>
<path d="M175.175 134.579H136.53C135.363 134.579 134.415 133.632 134.415 132.465C134.415 131.298 135.363 130.35 136.53 130.35H175.175C176.342 130.35 177.289 131.298 177.289 132.465C177.289 133.632 176.342 134.579 175.175 134.579Z" fill="white"/>
<path d="M168.255 126.12H136.53C135.363 126.12 134.415 125.173 134.415 124.005C134.415 122.837 135.363 121.89 136.53 121.89H168.255C169.422 121.89 170.37 122.837 170.37 124.005C170.37 125.173 169.422 126.12 168.255 126.12Z" fill="white"/>
<path d="M248.787 98.689H190.826V139.5H248.787V98.689Z" fill="#27A197"/>
<path d="M202.83 117.253C206.489 117.253 209.456 114.286 209.456 110.627C209.456 106.968 206.489 104.001 202.83 104.001C199.171 104.001 196.204 106.968 196.204 110.627C196.204 114.286 199.171 117.253 202.83 117.253Z" fill="white"/>
<path d="M236.963 134.579H198.318C197.151 134.579 196.203 133.632 196.203 132.465C196.203 131.298 197.151 130.35 198.318 130.35H236.963C238.13 130.35 239.077 131.298 239.077 132.465C239.077 133.632 238.13 134.579 236.963 134.579Z" fill="white"/>
<path d="M230.043 126.12H198.318C197.151 126.12 196.203 125.173 196.203 124.005C196.203 122.837 197.151 121.89 198.318 121.89H230.043C231.21 121.89 232.157 122.837 232.157 124.005C232.157 125.173 231.21 126.12 230.043 126.12Z" fill="white"/>
<path d="M248.787 142.905H190.827V156.009H248.787V142.905Z" fill="#A5A4A4"/>
<path d="M196.204 154.843C196.204 151.184 199.171 148.217 202.83 148.217C206.488 148.217 209.455 151.184 209.455 154.843" fill="white"/>
<path d="M257.659 41.69H119.837C115.446 41.69 111.886 45.251 111.886 49.641V150.358C111.886 154.749 115.446 158.309 119.837 158.309H257.659C262.05 158.309 265.61 154.748 265.61 150.358V49.642C265.61 45.251 262.05 41.69 257.659 41.69ZM244.407 46.991H247.057C248.521 46.991 249.707 48.179 249.707 49.641C249.707 51.106 248.52 52.291 247.057 52.291H244.407C242.943 52.291 241.756 51.105 241.756 49.641C241.757 48.179 242.943 46.991 244.407 46.991ZM170.195 46.991H233.805C235.269 46.991 236.455 48.179 236.455 49.641C236.455 51.106 235.268 52.291 233.805 52.291H170.195C168.731 52.291 167.544 51.105 167.544 49.641C167.544 48.179 168.731 46.991 170.195 46.991ZM156.943 46.991H159.594C161.057 46.991 162.244 48.179 162.244 49.641C162.244 51.106 161.057 52.291 159.594 52.291H156.943C155.479 52.291 154.293 51.105 154.293 49.641C154.292 48.179 155.479 46.991 156.943 46.991ZM146.341 46.991H148.992C150.455 46.991 151.642 48.179 151.642 49.641C151.642 51.106 150.455 52.291 148.992 52.291H146.341C144.877 52.291 143.691 51.105 143.691 49.641C143.691 48.179 144.877 46.991 146.341 46.991ZM135.739 46.991C137.203 46.991 138.39 48.179 138.39 49.641C138.39 51.106 137.203 52.291 135.739 52.291C134.275 52.291 133.089 51.105 133.089 49.641C133.089 48.179 134.275 46.991 135.739 46.991ZM127.789 46.991C129.252 46.991 130.439 48.179 130.439 49.641C130.439 51.106 129.252 52.291 127.789 52.291C126.325 52.291 125.138 51.105 125.138 49.641C125.138 48.179 126.324 46.991 127.789 46.991ZM119.837 46.991C121.301 46.991 122.488 48.179 122.488 49.641C122.488 51.106 121.301 52.291 119.837 52.291C118.373 52.291 117.187 51.105 117.187 49.641C117.187 48.179 118.373 46.991 119.837 46.991ZM260.31 73.495V150.358C260.31 151.822 259.123 153.008 257.66 153.008H119.837C118.373 153.008 117.187 151.821 117.187 150.358V73.495V60.243C117.187 58.78 118.374 57.593 119.837 57.593H257.659C259.123 57.593 260.309 58.781 260.309 60.243V73.495H260.31ZM257.659 52.292H255.009C253.545 52.292 252.358 51.105 252.358 49.642C252.358 48.179 253.546 46.992 255.009 46.992H257.659C259.123 46.992 260.309 48.18 260.309 49.642C260.31 51.106 259.123 52.292 257.659 52.292Z" fill="#D3DDF0"/>
<path d="M119.837 52.292C121.301 52.292 122.487 51.1056 122.487 49.642C122.487 48.1784 121.301 46.992 119.837 46.992C118.373 46.992 117.187 48.1784 117.187 49.642C117.187 51.1056 118.373 52.292 119.837 52.292Z" fill="#F1656A"/>
<path d="M127.789 52.292C129.253 52.292 130.439 51.1056 130.439 49.642C130.439 48.1784 129.253 46.992 127.789 46.992C126.325 46.992 125.139 48.1784 125.139 49.642C125.139 51.1056 126.325 52.292 127.789 52.292Z" fill="#FFE169"/>
<path d="M135.739 52.292C137.203 52.292 138.389 51.1056 138.389 49.642C138.389 48.1784 137.203 46.992 135.739 46.992C134.275 46.992 133.089 48.1784 133.089 49.642C133.089 51.1056 134.275 52.292 135.739 52.292Z" fill="#91CFA5"/>
<path d="M146.341 52.292H148.992C150.455 52.292 151.642 51.105 151.642 49.642C151.642 48.179 150.455 46.992 148.992 46.992H146.341C144.877 46.992 143.691 48.18 143.691 49.642C143.691 51.106 144.877 52.292 146.341 52.292Z" fill="#E4E9F6"/>
<path d="M156.943 52.292H159.594C161.057 52.292 162.244 51.105 162.244 49.642C162.244 48.179 161.057 46.992 159.594 46.992H156.943C155.479 46.992 154.293 48.18 154.293 49.642C154.292 51.106 155.479 52.292 156.943 52.292Z" fill="#E4E9F6"/>
<path d="M244.407 52.292H247.057C248.521 52.292 249.707 51.105 249.707 49.642C249.707 48.179 248.52 46.992 247.057 46.992H244.407C242.943 46.992 241.756 48.18 241.756 49.642C241.757 51.106 242.943 52.292 244.407 52.292Z" fill="#E4E9F6"/>
<path d="M257.659 46.991H255.009C253.545 46.991 252.358 48.179 252.358 49.641C252.358 51.106 253.546 52.291 255.009 52.291H257.659C259.123 52.291 260.309 51.105 260.309 49.641C260.31 48.179 259.123 46.991 257.659 46.991Z" fill="#E4E9F6"/>
<path d="M170.195 52.292H233.805C235.269 52.292 236.455 51.105 236.455 49.642C236.455 48.179 235.268 46.992 233.805 46.992H170.195C168.731 46.992 167.544 48.18 167.544 49.642C167.544 51.106 168.731 52.292 170.195 52.292Z" fill="#E4E9F6"/>
</svg>

<?xml version="1.0" encoding="utf-8"?>
<!-- Generator: Adobe Illustrator 23.0.2, SVG Export Plug-In . SVG Version: 6.00 Build 0)  -->
<svg version="1.1" id="Layer_1" xmlns="http://www.w3.org/2000/svg" xmlns:xlink="http://www.w3.org/1999/xlink" x="0px" y="0px"
	 viewBox="0 0 400 200" style="enable-background:new 0 0 400 200;" xml:space="preserve">
<style type="text/css">
	.st0{fill:#FEBE47;}
	.st1{opacity:5.000000e-02;enable-background:new    ;}
	.st2{fill:#FFFFFF;}
	.st3{fill:#A5A4A4;}
	.st4{fill:#27A197;}
	.st5{fill:#D3DDF0;}
	.st6{fill:#F1656A;}
	.st7{fill:#FFE169;}
	.st8{fill:#91CFA5;}
	.st9{fill:#E4E9F6;}
</style>
<g>
	<path class="st0" d="M400,195c0,2.8-2.2,5-5,5H5c-2.8,0-5-2.2-5-5V5c0-2.8,2.2-5,5-5h390c2.8,0,5,2.2,5,5V195z"/>
</g>
<g>
	<path class="st1" d="M252.7,46.7H114.8c-4.4,0-8,3.6-8,8v100.7c0,4.4,3.6,8,8,8h137.8c4.4,0,8-3.6,8-8V54.6
		C260.6,50.3,257.1,46.7,252.7,46.7z"/>
	<rect x="114.8" y="49.6" class="st2" width="147" height="105.6"/>
</g>
<g id="Layer_4">
	<rect x="115.5" y="56.8" width="146.2" height="33.4"/>
	<path class="st2" d="M178,80.2h-48.6c-1.2,0-2.1-0.9-2.1-2.1s0.9-2.1,2.1-2.1H178c1.2,0,2.1,0.9,2.1,2.1S179.2,80.2,178,80.2z"/>
	<path class="st2" d="M161.1,71.8h-31.7c-1.2,0-2.1-0.9-2.1-2.1s0.9-2.1,2.1-2.1h31.7c1.2,0,2.1,0.9,2.1,2.1S162.3,71.8,161.1,71.8z
		"/>
	<rect x="128.8" y="98.7" class="st3" width="57.1" height="40.8"/>
	<rect x="128.8" y="143" class="st3" width="57.1" height="12.5"/>
	<g>
		<path class="st2" d="M134.4,153.2c0-3.7,3-6.6,6.6-6.6c3.7,0,6.6,3,6.6,6.6"/>
	</g>
	<g>
		<circle class="st2" cx="141" cy="110.6" r="6.6"/>
	</g>
	<path class="st2" d="M175.2,134.6h-38.6c-1.2,0-2.1-0.9-2.1-2.1s0.9-2.1,2.1-2.1h38.6c1.2,0,2.1,0.9,2.1,2.1
		S176.3,134.6,175.2,134.6z"/>
	<path class="st2" d="M168.3,126.1h-31.7c-1.2,0-2.1-0.9-2.1-2.1s0.9-2.1,2.1-2.1h31.7c1.2,0,2.1,0.9,2.1,2.1
		S169.4,126.1,168.3,126.1z"/>
	<rect x="190.8" y="98.7" class="st4" width="58" height="40.8"/>
	<g>
		<circle class="st2" cx="202.8" cy="110.6" r="6.6"/>
	</g>
	<path class="st2" d="M237,134.6h-38.6c-1.2,0-2.1-0.9-2.1-2.1s0.9-2.1,2.1-2.1H237c1.2,0,2.1,0.9,2.1,2.1S238.1,134.6,237,134.6z"
		/>
	<path class="st2" d="M230,126.1h-31.7c-1.2,0-2.1-0.9-2.1-2.1s0.9-2.1,2.1-2.1H230c1.2,0,2.1,0.9,2.1,2.1S231.2,126.1,230,126.1z"
		/>
	<rect x="190.8" y="142.9" class="st3" width="58" height="13.1"/>
	<g>
		<path class="st2" d="M196.2,154.8c0-3.7,3-6.6,6.6-6.6c3.7,0,6.6,3,6.6,6.6"/>
	</g>
	<path class="st4" d="M206.3,108.3c-0.2-0.2-0.6-0.2-0.8,0l-3.5,3.5l-1.8-1.8c-0.2-0.2-0.6-0.2-0.8,0c-0.2,0.2-0.2,0.6,0,0.8
		l2.2,2.2c0.1,0.1,0.2,0.2,0.4,0.2c0.1,0,0.3-0.1,0.4-0.2l3.9-3.9C206.5,108.9,206.5,108.5,206.3,108.3z"/>
</g>
<g id="Layer_3">
	<g>
		<path class="st5" d="M257.7,41.7H119.8c-4.4,0-8,3.6-8,8v100.7c0,4.4,3.6,8,8,8h137.8c4.4,0,8-3.6,8-8V49.6
			C265.6,45.3,262,41.7,257.7,41.7z M244.4,47h2.6c1.5,0,2.6,1.2,2.6,2.7c0,1.5-1.2,2.7-2.6,2.7h-2.6c-1.5,0-2.7-1.2-2.7-2.7
			C241.8,48.2,242.9,47,244.4,47z M170.2,47h63.6c1.5,0,2.6,1.2,2.6,2.7c0,1.5-1.2,2.7-2.6,2.7h-63.6c-1.5,0-2.7-1.2-2.7-2.7
			C167.5,48.2,168.7,47,170.2,47z M156.9,47h2.7c1.5,0,2.6,1.2,2.6,2.7c0,1.5-1.2,2.7-2.6,2.7h-2.7c-1.5,0-2.6-1.2-2.6-2.7
			C154.3,48.2,155.5,47,156.9,47z M146.3,47h2.7c1.5,0,2.6,1.2,2.6,2.7c0,1.5-1.2,2.7-2.6,2.7h-2.7c-1.5,0-2.6-1.2-2.6-2.7
			C143.7,48.2,144.9,47,146.3,47z M135.7,47c1.5,0,2.7,1.2,2.7,2.7c0,1.5-1.2,2.7-2.7,2.7s-2.6-1.2-2.6-2.7
			C133.1,48.2,134.3,47,135.7,47z M127.8,47c1.5,0,2.6,1.2,2.6,2.7c0,1.5-1.2,2.7-2.7,2.7c-1.5,0-2.7-1.2-2.7-2.7
			C125.1,48.2,126.3,47,127.8,47z M119.8,47c1.5,0,2.7,1.2,2.7,2.7c0,1.5-1.2,2.7-2.7,2.7s-2.7-1.2-2.7-2.7
			C117.2,48.2,118.4,47,119.8,47z M260.3,73.5v76.9c0,1.5-1.2,2.6-2.6,2.6H119.8c-1.5,0-2.7-1.2-2.7-2.6V73.5V60.2
			c0-1.5,1.2-2.7,2.7-2.7h137.8c1.5,0,2.6,1.2,2.6,2.7L260.3,73.5L260.3,73.5z M257.7,52.3H255c-1.5,0-2.7-1.2-2.7-2.7
			s1.2-2.7,2.7-2.7h2.6c1.5,0,2.6,1.2,2.6,2.7C260.3,51.1,259.1,52.3,257.7,52.3z"/>
		<circle class="st6" cx="119.8" cy="49.6" r="2.7"/>
		<circle class="st7" cx="127.8" cy="49.6" r="2.6"/>
		<circle class="st8" cx="135.7" cy="49.6" r="2.6"/>
		<g>
			<path class="st9" d="M146.3,52.3h2.7c1.5,0,2.6-1.2,2.6-2.7S150.5,47,149,47h-2.7c-1.5,0-2.6,1.2-2.6,2.7
				C143.7,51.1,144.9,52.3,146.3,52.3z"/>
			<path class="st9" d="M156.9,52.3h2.7c1.5,0,2.6-1.2,2.6-2.7s-1.2-2.7-2.6-2.7h-2.7c-1.5,0-2.6,1.2-2.6,2.7
				C154.3,51.1,155.5,52.3,156.9,52.3z"/>
			<path class="st9" d="M244.4,52.3h2.6c1.5,0,2.6-1.2,2.6-2.7s-1.2-2.7-2.6-2.7h-2.6c-1.5,0-2.7,1.2-2.7,2.7
				C241.8,51.1,242.9,52.3,244.4,52.3z"/>
			<path class="st9" d="M257.7,47H255c-1.5,0-2.7,1.2-2.7,2.7c0,1.5,1.2,2.7,2.7,2.7h2.6c1.5,0,2.6-1.2,2.6-2.7
				C260.3,48.2,259.1,47,257.7,47z"/>
			<path class="st9" d="M170.2,52.3h63.6c1.5,0,2.6-1.2,2.6-2.7s-1.2-2.7-2.6-2.7h-63.6c-1.5,0-2.7,1.2-2.7,2.7
				C167.5,51.1,168.7,52.3,170.2,52.3z"/>
		</g>
	</g>
</g>
</svg>
